svg/fluentui-system-icons/ic_fluent_padding_left_20_regular.svg

<svg width="20" height="20" viewBox="0 0 20 20" fill="none" xmlns="http://www.w3.org/2000/svg">
<path d="M2 3.5C2 3.22386 2.22386 3 2.5 3C2.77614 3 3 3.22386 3 3.5L3 4.5C3 4.77614 2.77614 5 2.5 5C2.22386 5 2 4.77614 2 4.5V3.5ZM2 6.5C2 6.22386 2.22386 6 2.5 6C2.77614 6 3 6.22386 3 6.5L3 8.5C3 8.77614 2.77614 9 2.5 9C2.22386 9 2 8.77614 2 8.5V6.5ZM2 10.5C2 10.2239 2.22386 10 2.5 10C2.77614 10 3 10.2239 3 10.5V12.5C3 12.7761 2.77614 13 2.5 13C2.22386 13 2 12.7761 2 12.5V10.5ZM2 14.5C2 14.2239 2.22386 14 2.5 14C2.77614 14 3 14.2239 3 14.5L3 15.5C3 15.7761 2.77614 16 2.5 16C2.22386 16 2 15.7761 2 15.5V14.5ZM4.14645 9.85355C3.95118 9.65829 3.95118 9.34171 4.14645 9.14645L8.64645 4.64645C8.84171 4.45118 9.15829 4.45118 9.35355 4.64645C9.54882 4.84171 9.54882 5.15829 9.35355 5.35355L5.70711 9L15.5 9C15.7761 9 16 9.22386 16 9.5C16 9.77614 15.7761 10 15.5 10L5.70711 10L9.35355 13.6464C9.54882 13.8417 9.54882 14.1583 9.35355 14.3536C9.15829 14.5488 8.84171 14.5488 8.64645 14.3536L4.14645 9.85355ZM17 3.5C17 3.22386 17.2239 3 17.5 3C17.7761 3 18 3.22386 18 3.5V15.5C18 15.7761 17.7761 16 17.5 16C17.2239 16 17 15.7761 17 15.5V3.5Z" fill="#212121"/>
</svg>

<svg xmlns="http://www.w3.org/2000/svg" width="20" height="20"><path d="M2 3.5a.5.5 0 0 1 1 0v1a.5.5 0 0 1-1 0v-1Zm0 3a.5.5 0 0 1 1 0v2a.5.5 0 0 1-1 0v-2Zm0 4a.5.5 0 0 1 1 0v2a.5.5 0 0 1-1 0v-2Zm0 4a.5.5 0 0 1 1 0v1a.5.5 0 0 1-1 0v-1Zm2.146-4.646a.5.5 0 0 1 0-.708l4.5-4.5a.5.5 0 1 1 .708.708L5.707 9H15.5a.5.5 0 0 1 0 1H5.707l3.647 3.646a.5.5 0 0 1-.708.708l-4.5-4.5ZM17 3.5a.5.5 0 0 1 1 0v12a.5.5 0 0 1-1 0v-12Z"/></svg>
